X: 5
T: The High Drive
R: reel
M: 4/4
L: 1/8
K: Dmaj
|: A | d3 e fedA | B2 gB BAGB | GA A2 fedf | eA A2 afge |
d3e fedA | B2 gB BAGB | GA A2 fedf | edce d3 :|
|: A | a3g ad d2 | AB B2 gBdB | GA A2 fedf | eA A2 efge |
a3g ad d2 | AB B2 gBdB | GA A2 fedf | edce d3 :|
A |: dAeA fA A2 | gBBA Bgag | fA A2 fAdf | eA A2 efge |
dAeA fA A2 | gBBA Bgag | fA A2 fAdf |[1 edce d2 fe :|[2 edce defg |]
|: adfa dfad | gBdg Bdgd | fAdf Adfd | edde defg |
adfa dfad | gBdg BdGB | GA A2 fedf |[1 edce defg :|[2 edce d4 |]


Tune 4428	Setting 22840

